!!!ONB: MCCC : IJH0430_02 : Extracted Monophonic Melody
!!!COM: Haydn, Joseph
!!!OPR: String Quartet in D major
!!!OMV: 2
!!!SCT: Hob.III:49 ; Op.50 No.6
!!!ODT: 1787///
**kern
*thru
*k[b-]
*d:
*clefG
*M6/8
16.d
32f
=1
8a
8a
8a
8.a
16b-
8a
=2
8a
8a
16.b
32cc#
8a
8r
16.c#
32e
=3
8g
8g
8g
8.g
16a
8g
=4
8f
8e
16.e
32f
8d
8r
16.dd
32ff
=5
8aa
8aa
8aa
8.aa
32bb
32ccc#
32ddd
32eee
32fff
32ddd
=6
8ccc#
16r
32ccc#
32ddd
32eee
32fff
32ggg
32eee
8ddd
16r
32ddd
32eee
32fff
32ggg
32aaa
32fff
=7
8eee
8eee
8eee
8.eee
16fff
8ddd
=8
2.aaa
=9
2.aaa[
=10
8aaa]
8r
8A
8A
8r
16.ff
32aa
=11
8ccc
8ccc
8ccc
8.ccc
16ddd
8ccc
=12
8r
8ccc
8ccc
8.ccc
16ddd
8ccc
=13
8r
8ccc
8ccc
8ccc
16.bb-
32aa
16.gg
32ff
=14
16.ee
32dd
16.cc
32b-
16.a
32g
8f
8b-
8b-
=15
4b-
8a
16g
64a
64g
64f#
64g
8dd
8dd
=16
4.dd[
32dd]
32cc
32ff
32ee
32gg
32ff
32aa
32gg
32bb-
32aa
32ddd
32ccc
=17
32bb-
32aa
32ccc
32bb-
32aa
32gg
32bb-
32aa
32gg
32ff
32aa
32gg
32ff
32ee
32gg
32ff
32gg
32ff
32ee
32ff
32ff
32ee-
32dd
32ee-
=18
32ee-
32dd
32cc#
32dd
32cc#
32dd
32cc#
32dd
32dd
32cc
32b
32cc
32cc
32b-
32a
32b-
32a
32b-
32a
32b-
32b-
32a
32g#
32a
=19
32a
32g
32f#
32g
32f#
32g
32f#
32g
32d
32dd
32b-
32g
32g
32f
32e
32f
32e
32f
32e
32f
32d
32a-
32f
32d
=20
32c
32a
32f
32c
32cc
32a
32f
32ff
32a
32aa
32ff
32cc
8ccc
16r
16ccc
16ccc
16ccc
=21
8ccc
16r
16ddd
16eee
16fff
4.gg
=22
2.ff
=23
2.ff[
=24
4ff]
8cc
8.cc
16b
16b-
16g
=25
8f
8r
8f
8f
8r
16.d-
32f
=26
8a-
8a-
8a-
8.a-
16b-
8a-
=27
8r
8a-
8a-
8.a-
16b-
8a-
=28
8r
8dd-
8dd-
8.cc
16dd-
8cc
=29
8r
8dd-
8dd-
8.cc
16dd-
8cc
=30
8r
8dd-
8dd-
8.ff
16gg-
8ff
=31
8ee-
8ee-
8ee-
8.ee-
16ff
8ee-
=32
8ee-
8ee-
8ee-
8ee-
4r
=33
8e-
8e-
8e-
8e-
4r
=34
8ee-
8ee-
8ee-
8ee-
4r
=35
8e-
8e-
8e-
8e-
4r
=36
8e
8e
8e
4e
16g#
16e
=37
8b
8b
8b
8.b
16cc#
8b
=38
8r
8b
8b
8.b
16cc#
8b
=39
8r
8b
8b
8.b
16cc#
8b
=40
8r
8dd
8dd
8.dd
16cc#
8dd
=41
8r
8ff
8ff
8.ff
16ee
8dd
=42
8cc#
8a
8a
4a
32g
32f
32e
32d
=43
8c#
8a
8a
4a
32g
32f
32e
32d
=44
8A
4r
32r
32A
32B-
32B
32c
32c#
32d
32e
32f
32f#
32g
32g#
=45
8a
8a
8a
8.a
16b-
8a
=46
8a
8a
16.b
32cc#
8a
8r
16.c#
32e
=47
8g
8g
8g
8.g
16a
8g
=48
8f
8e
16.e
32f
8d
8r
16.dd
32ff
=49
8aa
8aa
8aa
8.aa
32bb
32ccc#
32ddd
32eee
32fff
32ddd
=50
8ccc#
16r
32ccc#
32ddd
32eee
32fff
32ggg
32eee
8ddd
16r
32ddd
32eee
32fff
32ggg
32aaa
32fff
=51
8eee
8eee
8eee
8.eee
16fff
8ddd
=52
2.aaa
=53
2.aaa[
=54
8aaa]
8r
8A
8A
8r
16.dd
32ff#
=55
8aa
8aa
8aa
8.aa
16bb
8aa
=56
8r
8aa
8aa
8.aa
16bb
8aa
=57
8r
8aa
8aa
8aa
16.gg
32ff#
16.ee
32dd
=58
16.cc#
32b
16.a
32g
16.f#
32e
8d
8g
8g
=59
4g
8f#
16e
64f#
64e
64d#
64e
8b
8b
=60
4.b[
32b]
32a
32dd
32cc#
32ee
32dd
32ff#
32ee
32gg
32ff#
32bb
32aa
=61
32ddd
32ccc#
32ddd
32ccc#
32ddd
32ccc#
32ddd
32ccc#
32ddd
32bb
32ccc
32aa#
32bb
32aa#
32bb
32aa#
32bb
32aa#
32bb
32aa#
32bb
32ff#
32gg
32ee
=62
32dd
32a
32ff#
32dd
32aa
32ff#
32ddd
32ccc#
32ddd
32aa
32ff#
32dd
4.ee
=63
2.dd
=64
2.dd[
=65
4dd]
8a
8.a
16g#
16g
16e
=66
8d
8r
8d
8d
4r
==
*-
